style/img/pinterest-svgrepo-com.svg

<svg width="98" height="98" viewBox="0 0 98 98" fill="none" xmlns="http://www.w3.org/2000/svg">
<g clip-path="url(#clip0)">
<path d="M51.1248 0C24.4688 0 11.0288 19.11 11.0288 35.047C11.0288 44.696 14.6818 53.279 22.5158 56.479C23.8018 57.004 24.9538 56.498 25.3278 55.076C25.5858 54.091 26.1988 51.608 26.4718 50.573C26.8478 49.166 26.7008 48.673 25.6648 47.447C23.4058 44.782 21.9618 41.332 21.9618 36.445C21.9618 22.267 32.5698 9.575 49.5858 9.575C64.6498 9.575 72.9278 18.781 72.9278 31.075C72.9278 47.251 65.7688 60.903 55.1418 60.903C49.2718 60.903 44.8798 56.049 46.2878 50.096C47.9738 42.989 51.2388 35.318 51.2388 30.189C51.2388 25.597 48.7758 21.766 43.6738 21.766C37.6738 21.766 32.8548 27.973 32.8548 36.287C32.8548 41.583 34.6438 45.165 34.6438 45.165C34.6438 45.165 28.5028 71.18 27.4288 75.736C25.2838 84.808 27.1068 95.931 27.2608 97.054C27.3498 97.72 28.2048 97.878 28.5928 97.376C29.1478 96.653 36.2928 87.832 38.7218 79.017C39.4088 76.521 42.6658 63.597 42.6658 63.597C44.6158 67.314 50.3128 70.589 56.3718 70.589C74.4058 70.589 86.6428 54.148 86.6428 32.139C86.6438 15.498 72.5468 0 51.1248 0Z" fill="#373737"/>
</g>
<defs>
<clipPath id="clip0">
<rect width="97.672" height="97.672" fill="white"/>
</clipPath>
</defs>
</svg>

<?xml version="1.0" encoding="iso-8859-1"?>
<!-- Generator: Adobe Illustrator 16.0.0, SVG Export Plug-In . SVG Version: 6.00 Build 0)  -->
<!DOCTYPE svg PUBLIC "-//W3C//DTD SVG 1.1//EN" "http://www.w3.org/Graphics/SVG/1.1/DTD/svg11.dtd">
<svg version="1.1" id="Capa_1" xmlns="http://www.w3.org/2000/svg" xmlns:xlink="http://www.w3.org/1999/xlink" x="0px" y="0px"
	 width="97.672px" height="97.672px" viewBox="0 0 97.672 97.672" style="enable-background:new 0 0 97.672 97.672;"
	 xml:space="preserve">
<g>
	<path d="M51.125,0C24.469,0,11.029,19.11,11.029,35.047c0,9.649,3.653,18.232,11.487,21.432c1.286,0.525,2.438,0.019,2.812-1.403
		c0.258-0.985,0.871-3.468,1.144-4.503c0.376-1.407,0.229-1.9-0.807-3.126c-2.259-2.665-3.703-6.115-3.703-11.002
		c0-14.178,10.608-26.87,27.624-26.87c15.064,0,23.342,9.206,23.342,21.5c0,16.176-7.159,29.828-17.786,29.828
		c-5.87,0-10.262-4.854-8.854-10.807c1.686-7.107,4.951-14.778,4.951-19.907c0-4.592-2.463-8.423-7.565-8.423
		c-6,0-10.819,6.207-10.819,14.521c0,5.296,1.789,8.878,1.789,8.878s-6.141,26.015-7.215,30.571
		c-2.145,9.072-0.322,20.195-0.168,21.318c0.089,0.666,0.944,0.824,1.332,0.322c0.555-0.723,7.7-9.544,10.129-18.359
		c0.687-2.496,3.944-15.42,3.944-15.42c1.95,3.717,7.647,6.992,13.706,6.992c18.034,0,30.271-16.441,30.271-38.45
		C86.644,15.498,72.547,0,51.125,0z"/>
</g>
<g>
</g>
<g>
</g>
<g>
</g>
<g>
</g>
<g>
</g>
<g>
</g>
<g>
</g>
<g>
</g>
<g>
</g>
<g>
</g>
<g>
</g>
<g>
</g>
<g>
</g>
<g>
</g>
<g>
</g>
</svg>
